X:5
T:Lucy Farr #2
R:single jig
D:Double Barrelled, John Skelton & Kieran O'Hare
Z:Paul Stewart Cranford (P.S.C.), <http://www.cranfordpub.com>
L:1/8
Q:333
M:12/8
K:Dmix
~A3 ABc E2 D DEG|~A2 A Bcd efg BAG|~A2 A ABc E2 D DEG|AGE G2 E D3 D2z:|
||~A3 Bcd e2 f g2 e|a2 f g2 e d2 B BAG|~A3 Bcd e2 f g2 e|age def e3 efg|
a2 f g2 e d2 d efg|a2 f g2 e d2 B BAG|~A3 Bcd efg BAG|AGE G2 E D3 D2z|]
